svg/u1f44d.svg

<svg viewBox="0 0 128 128" xmlns="http://www.w3.org/2000/svg">
  <radialGradient id="e" cx="51.77" cy="31.401" gradientTransform="matrix(-.0021809 1 -.7873 -.001717 76.604 -20.315)" gradientUnits="userSpaceOnUse" r="87.039">
    <stop offset=".6" stop-color="#FFCA28"/>
    <stop offset="1" stop-color="#FFB300"/>
  </radialGradient>
  <path d="m85.52 121.67c-8.63-0.07-21.58-0.41-34.32-1.61-8.77-0.83-17.83-2.14-24.71-6.04-1.94-1.1-4.06-1.37-5.94-1.6-0.8-0.1-1.55-0.19-2.19-0.34-4.88-1.15-8.29-5.37-8.31-10.26l-0.07-32.75c-0.01-4.53 3.22-8.32 7.69-9.02 0.08-0.01 0.15-0.03 0.23-0.05 0.55-0.18 13.69-4.46 23.59-12.2 4.66-3.64 8.65-9.25 10.68-15 2.02-5.73 2.01-11.98 2-17 0-3.24-0.01-7.27 0.87-7.86 2.14-1.41 4.5-2.13 7.01-2.13 7.72 0 15.6 7.05 15.91 14.23 0.22 4.98-1.45 10.86-3.06 16.54-1.9 6.73-3.55 12.54-2.06 16.49 0.22 0.59 0.78 0.97 1.4 0.97 0.02 0 7.29-0.25 7.29-0.25h0.07c8.16 0 14.8 6.64 14.81 14.79l0.05 42.21c0 2.91-1.12 5.64-3.18 7.69-2.05 2.05-4.78 3.19-7.69 3.19h-0.07z" fill="url(#e)"/>
  <path d="m62.05 7.31c6.86 0 14.13 6.46 14.41 12.79 0.21 4.74-1.42 10.5-3 16.07-1.98 6.98-3.68 13.01-2.02 17.42 0.44 1.17 1.56 1.94 2.81 1.94h0.11l7.2-0.25h0.06c7.33 0 13.3 5.96 13.31 13.3l0.05 42.21c0 2.5-0.97 4.86-2.74 6.63s-4.12 2.75-6.63 2.75h-0.08c-8.6-0.07-21.51-0.41-34.19-1.6-8.6-0.81-17.48-2.09-24.11-5.85-2.2-1.25-4.58-1.54-6.49-1.78-0.76-0.09-1.47-0.18-2.03-0.32-4.2-0.99-7.14-4.61-7.15-8.8l-0.08-32.75c-0.01-3.78 2.69-6.95 6.42-7.53 0.15-0.02 0.31-0.06 0.45-0.11 0.56-0.18 13.94-4.55 24.05-12.45 4.87-3.81 9.05-9.67 11.17-15.68 2.11-5.97 2.1-12.36 2.09-17.5 0-2.44-0.01-5.74 0.41-6.74 1.84-1.17 3.85-1.75 5.98-1.75m0-3c-2.65 0-5.33 0.72-7.84 2.38-3.24 2.14 0.27 15.02-3.46 25.6-2.24 6.35-6.51 11.45-10.19 14.32-9.8 7.66-23.12 11.96-23.12 11.96-5.17 0.81-8.97 5.27-8.96 10.51l0.08 32.75c0.02 5.64 3.97 10.41 9.46 11.71 2.22 0.52 5.25 0.38 7.73 1.79 6.63 3.76 15.13 5.26 25.31 6.22 12.6 1.19 25.4 1.54 34.45 1.62h0.1c6.83 0 12.38-5.54 12.37-12.38l-0.05-42.21c-0.01-9.01-7.32-16.29-16.31-16.29h-0.12l-7.24 0.25c-2.5-6.64 5.69-21.58 5.21-32.57-0.35-7.81-8.68-15.66-17.42-15.66z" fill="#EDA600"/>
  <path d="m66.12 62.5c1.88 5 1.9 12.8 0 17.62-2.75 6.96-9.48 13.05-17.25 14.12-1.9 0.26-0.77 2.01 1.12 1.75 8.41-1.16 19.79-4.57 22.75-12.12 8.12-20.75-1.38-31.62-5.62-28.38-2.04 1.58-2.06 4.18-1 7.01z" fill="#EDA600"/>
  <radialGradient id="d" cx="2459.4" cy="-319.18" gradientTransform="matrix(-1.3883 .0794 -.0374 -.6794 3505.4 -353.39)" gradientUnits="userSpaceOnUse" r="20.331">
    <stop offset=".5993" stop-color="#FFCA28"/>
    <stop offset="1" stop-color="#FFB300"/>
  </radialGradient>
  <path d="m86.28 69.92c-8.36 0-18.41-1.55-18.84-8.96-0.12-2.12 0.52-3.9 1.96-5.43 3.79-4.02 13.1-6.23 26.22-6.23 4.76 0 8.23 0.31 8.27 0.31s0.09 0.01 0.13 0.01h0.09c0.14-0.01 0.27-0.01 0.41-0.01 4.25 0 7.8 3.83 8.09 8.72 0.3 5.06-3.03 9.38-7.42 9.63-0.07 0-0.15 0.01-0.22 0.03-0.09 0.01-9.35 1.93-18.69 1.93z" fill="url(#d)"/>
  <path d="m95.63 50.8c4.68 0 8.1 0.3 8.13 0.3 0.09 0.01 0.18 0.01 0.27 0.01 0.06 0 0.12 0 0.17-0.01 0.11-0.01 0.22-0.01 0.32-0.01 3.45 0 6.35 3.21 6.59 7.3 0.12 2.12-0.48 4.13-1.69 5.67-1.13 1.44-2.67 2.28-4.32 2.38-0.15 0.01-0.3 0.03-0.44 0.06-0.09 0.02-9.22 1.91-18.38 1.91-5.32 0-9.54-0.62-12.53-1.84-4.11-1.68-4.72-4.06-4.81-5.7-0.1-1.71 0.4-3.08 1.56-4.32 3.45-3.65 12.61-5.75 25.13-5.75m0-3c-11.42 0-30.36 1.73-29.69 13.25 0.49 8.32 10.53 10.37 20.34 10.37 9.61 0 19-1.97 19-1.97 5.22-0.31 9.18-5.33 8.83-11.22-0.33-5.7-4.57-10.13-9.58-10.13-0.17 0-0.33 0-0.5 0.01 0 0-3.51-0.31-8.4-0.31z" fill="#EDA600"/>
  <radialGradient id="c" cx="2557.2" cy="-508.52" gradientTransform="matrix(-1.6967 -.001885 .0029132 -.6804 4447.7 -263.06)" gradientUnits="userSpaceOnUse" r="18.753">
    <stop offset=".5993" stop-color="#FFCA28"/>
    <stop offset="1" stop-color="#FFB300"/>
  </radialGradient>
  <path d="m92.55 88.95c-10.91 0-23.91-1.83-23.91-10.57s13-10.57 23.91-10.57c9.25 0 17.68 1.35 17.76 1.36s0.16 0.02 0.24 0.02c4.41 0 7.48 4.66 7.48 8.84 0 4.41-3.27 9.53-7.48 9.53-0.08 0-0.16 0.01-0.24 0.02-0.09 0.02-8.52 1.37-17.76 1.37z" fill="url(#c)"/>
  <path d="m92.55 69.32c9.12 0 17.44 1.33 17.52 1.34 0.16 0.03 0.32 0.04 0.48 0.04 3.42 0 5.98 3.88 5.98 7.34 0 3.61-2.76 8.03-5.98 8.03-0.16 0-0.32 0.01-0.48 0.04-0.08 0.01-8.41 1.34-17.52 1.34-6.83 0-12.26-0.72-16.15-2.15-5.61-2.06-6.26-4.94-6.26-6.92 0-1.99 0.65-4.86 6.26-6.92 3.88-1.42 9.32-2.14 16.15-2.14m0-3c-11.93 0-25.41 2.19-25.41 12.07s13.47 12.07 25.41 12.07c9.49 0 18-1.38 18-1.38 5.16 0 8.98-5.91 8.98-11.03s-3.82-10.34-8.98-10.34c0-0.01-8.52-1.39-18-1.39z" fill="#EDA600"/>
  <radialGradient id="b" cx="2601.3" cy="-320.21" gradientTransform="matrix(-1.3069 -.0062595 .0045215 -.6804 3502.3 -88.992)" gradientUnits="userSpaceOnUse" r="20.446">
    <stop offset=".5993" stop-color="#FFCA28"/>
    <stop offset="1" stop-color="#FFB300"/>
  </radialGradient>
  <path d="m100.86 122.19c-4.21 0-25.54-0.33-32-6.8-1.13-1.13-1.67-2.35-1.67-3.73 0.02-5.25 9.01-8.26 24.66-8.26 5.58 0 9.9 0.4 9.95 0.4 0.04 0 0.09 0.01 0.13 0.01 2.34 0.01 4.55 0.96 6.2 2.69 1.67 1.74 2.58 4.06 2.58 6.52-0.02 5.05-3.97 9.15-8.81 9.15-0.07 0.02-0.42 0.02-1.04 0.02z" fill="url(#b)"/>
  <path d="m91.86 104.91c5.49 0 9.76 0.39 9.8 0.4 0.09 0.01 0.18 0.01 0.27 0.01 1.93 0.01 3.75 0.8 5.12 2.23 1.4 1.46 2.17 3.41 2.16 5.48-0.01 4.22-3.29 7.66-7.34 7.66h-0.01-0.06c-0.02 0-0.36 0.01-0.95 0.01-18.15 0-28.01-3.43-30.94-6.36-1.11-1.11-1.23-2.05-1.23-2.66 0.03-4.18 8.9-6.77 23.18-6.77m0-3c-10.72 0-26.14 1.44-26.16 9.75-0.04 11.46 29.3 12.03 35.16 12.03 0.65 0 1.01-0.01 1.01-0.01h0.03c5.68 0 10.29-4.76 10.31-10.65 0.02-5.9-4.58-10.7-10.27-10.72 0 0.01-4.37-0.4-10.08-0.4z" fill="#EDA600"/>
  <radialGradient id="a" cx="2578.2" cy="-485.68" gradientTransform="matrix(-1.6358 -.001885 .0028087 -.6804 4323.8 -229.31)" gradientUnits="userSpaceOnUse" r="18.611">
    <stop offset=".5993" stop-color="#FFCA28"/>
    <stop offset="1" stop-color="#FFB300"/>
  </radialGradient>
  <path d="m97.12 106.32c-8.99 0-29.89-1.02-29.89-10.47 0-7.94 15.07-9.12 24.06-9.12 7.95 0 14.8 0.88 14.87 0.89 0.06 0.01 0.13 0.01 0.19 0.01 4.17 0 9.03 2.06 9.03 7.87 0 5.5-4.3 10.5-9.03 10.5h-0.12c-0.04 0.01-3.89 0.32-9.11 0.32z" fill="url(#a)"/>
  <path d="m91.29 85.24v3c7.83 0 14.61 0.87 14.67 0.88 0.13 0.02 0.26 0.02 0.39 0.02 3.64 0 7.53 1.67 7.53 6.37 0 4.63-3.66 9-7.53 9-0.08 0-0.16 0-0.25 0.01-0.04 0-3.83 0.31-8.99 0.31-5.45 0-13.24-0.35-19.41-1.99-5.95-1.59-8.97-3.94-8.97-6.97 0-0.93 0-3.76 6.34-5.75 3.95-1.24 9.4-1.87 16.21-1.87l0.01-3.01m0 0c-11.56 0-25.56 1.82-25.56 10.62 0 10.37 19.4 11.97 31.39 11.97 5.36 0 9.23-0.32 9.23-0.32 5.64 0 10.53-5.83 10.53-12s-4.89-9.37-10.53-9.37c0 0-6.93-0.9-15.06-0.9z" fill="#EDA600"/>
  <polygon fill="#EDA600" points="27.79 114.9 23 96 21 113"/>
</svg>

<svg viewBox="0 0 128 128" xmlns="http://www.w3.org/2000/svg">
  <defs>
    <radialGradient id="e" cx="31.288034" cy="-65.841895" gradientTransform="matrix(-0.002181 1 -0.7873 -0.001717 0 0)" gradientUnits="userSpaceOnUse" r="87.039">
      <stop offset=".6" stop-color="#FFCA28"/>
      <stop offset="1" stop-color="#FFB300"/>
    </radialGradient>
    <radialGradient id="d" cx="-71.60264" cy="-94.82264" gradientTransform="matrix(-1.3883 0.0794 -0.0374 -0.6794 0 0)" gradientUnits="userSpaceOnUse" r="20.331">
      <stop offset=".5993" stop-color="#FFCA28"/>
      <stop offset="1" stop-color="#FFB300"/>
    </radialGradient>
    <radialGradient id="c" cx="-63.50639" cy="-114.634004" gradientTransform="matrix(-1.6967 -0.001885 0.002913 -0.6804 0 0)" gradientUnits="userSpaceOnUse" r="18.753">
      <stop offset=".5993" stop-color="#FFCA28"/>
      <stop offset="1" stop-color="#FFB300"/>
    </radialGradient>
    <radialGradient id="b" cx="-78.0153" cy="-164.767357" gradientTransform="matrix(-1.3069 -0.00626 0.004522 -0.6804 0 0)" gradientUnits="userSpaceOnUse" r="20.446">
      <stop offset=".5993" stop-color="#FFCA28"/>
      <stop offset="1" stop-color="#FFB300"/>
    </radialGradient>
    <radialGradient id="a" cx="-64.441424" cy="-141.336409" gradientTransform="matrix(-1.6358 -0.001885 0.002809 -0.6804 0 0)" gradientUnits="userSpaceOnUse" r="18.611">
      <stop offset=".5993" stop-color="#FFCA28"/>
      <stop offset="1" stop-color="#FFB300"/>
    </radialGradient>
  </defs>
  <path d="M85.52,121.67 C76.89,121.6 63.94,121.26 51.2,120.06 C42.43,119.23 33.37,117.92 26.49,114.02 C24.55,112.92 22.43,112.65 20.55,112.42 C19.75,112.32 19,112.23 18.36,112.08 C13.48,110.93 10.07,106.71 10.05,101.82 L9.98,69.07 C9.97,64.54 13.2,60.75 17.67,60.05 C17.75,60.04 17.82,60.02 17.9,60 C18.45,59.82 31.59,55.54 41.49,47.8 C46.15,44.16 50.14,38.55 52.17,32.8 C54.19,27.07 54.18,20.82 54.17,15.8 C54.17,12.56 54.16,8.53 55.04,7.94 C57.18,6.53 59.54,5.81 62.05,5.81 C69.77,5.81 77.65,12.86 77.96,20.04 C78.18,25.02 76.51,30.9 74.9,36.58 C73,43.31 71.35,49.12 72.84,53.07 C73.06,53.66 73.62,54.04 74.24,54.04 C74.26,54.04 81.53,53.79 81.53,53.79 L81.6,53.79 C89.76,53.79 96.4,60.43 96.41,68.58 L96.46,110.79 C96.46,113.7 95.34,116.43 93.28,118.48 C91.23,120.53 88.5,121.67 85.59,121.67 L85.52,121.67 Z" fill="url(#e)"/>
  <path d="M62.05,7.31 C68.91,7.31 76.18,13.77 76.46,20.1 C76.67,24.84 75.04,30.6 73.46,36.17 C71.48,43.15 69.78,49.18 71.44,53.59 C71.88,54.76 73,55.53 74.25,55.53 L74.36,55.53 L81.56,55.28 L81.62,55.28 C88.95,55.28 94.92,61.24 94.93,68.58 L94.98,110.79 C94.98,113.29 94.01,115.65 92.24,117.42 C90.47,119.19 88.12,120.17 85.61,120.17 L85.53,120.17 C76.93,120.1 64.02,119.76 51.34,118.57 C42.74,117.76 33.86,116.48 27.23,112.72 C25.03,111.47 22.65,111.18 20.74,110.94 C19.98,110.85 19.27,110.76 18.71,110.62 C14.51,109.63 11.57,106.01 11.56,101.82 L11.48,69.07 C11.47,65.29 14.17,62.12 17.9,61.54 C18.05,61.52 18.21,61.48 18.35,61.43 C18.91,61.25 32.29,56.88 42.4,48.98 C47.27,45.17 51.45,39.31 53.57,33.3 C55.68,27.33 55.67,20.94 55.66,15.8 C55.66,13.36 55.65,10.06 56.07,9.06 C57.91,7.89 59.92,7.31 62.05,7.31 M62.05,4.31 C59.4,4.31 56.72,5.03 54.21,6.69 C50.97,8.83 54.48,21.71 50.75,32.29 C48.51,38.64 44.24,43.74 40.56,46.61 C30.76,54.27 17.44,58.57 17.44,58.57 C12.27,59.38 8.47,63.84 8.48,69.08 L8.56,101.83 C8.58,107.47 12.53,112.24 18.02,113.54 C20.24,114.06 23.27,113.92 25.75,115.33 C32.38,119.09 40.88,120.59 51.06,121.55 C63.66,122.74 76.46,123.09 85.51,123.17 L85.61,123.17 C92.44,123.17 97.99,117.63 97.98,110.79 L97.93,68.58 C97.92,59.57 90.61,52.29 81.62,52.29 L81.5,52.29 L74.26,52.54 C71.76,45.9 79.95,30.96 79.47,19.97 C79.12,12.16 70.79,4.31 62.05,4.31 Z" fill="#EDA600"/>
  <path d="M66.12,62.5 C68,67.5 68.02,75.3 66.12,80.12 C63.37,87.08 56.64,93.17 48.87,94.24 C46.97,94.5 48.1,96.25 49.99,95.99 C58.4,94.83 69.78,91.42 72.74,83.87 C80.86,63.12 71.36,52.25 67.12,55.49 C65.08,57.07 65.06,59.67 66.12,62.5 Z" fill="#EDA600"/>
  <path d="M86.28,69.92 C77.92,69.92 67.87,68.37 67.44,60.96 C67.32,58.84 67.96,57.06 69.4,55.53 C73.19,51.51 82.5,49.3 95.62,49.3 C100.38,49.3 103.85,49.61 103.89,49.61 C103.93,49.61 103.98,49.62 104.02,49.62 L104.11,49.62 C104.25,49.61 104.38,49.61 104.52,49.61 C108.77,49.61 112.32,53.44 112.61,58.33 C112.91,63.39 109.58,67.71 105.19,67.96 C105.12,67.96 105.04,67.97 104.97,67.99 C104.88,68 95.62,69.92 86.28,69.92 Z" fill="url(#d)"/>
  <path d="M95.63,50.8 C100.31,50.8 103.73,51.1 103.76,51.1 C103.85,51.11 103.94,51.11 104.03,51.11 C104.09,51.11 104.15,51.11 104.2,51.1 C104.31,51.09 104.42,51.09 104.52,51.09 C107.97,51.09 110.87,54.3 111.11,58.39 C111.23,60.51 110.63,62.52 109.42,64.06 C108.29,65.5 106.75,66.34 105.1,66.44 C104.95,66.45 104.8,66.47 104.66,66.5 C104.57,66.52 95.44,68.41 86.28,68.41 C80.96,68.41 76.74,67.79 73.75,66.57 C69.64,64.89 69.03,62.51 68.94,60.87 C68.84,59.16 69.34,57.79 70.5,56.55 C73.95,52.9 83.11,50.8 95.63,50.8 M95.63,47.8 C84.21,47.8 65.27,49.53 65.94,61.05 C66.43,69.37 76.47,71.42 86.28,71.42 C95.89,71.42 105.28,69.45 105.28,69.45 C110.5,69.14 114.46,64.12 114.11,58.23 C113.78,52.53 109.54,48.1 104.53,48.1 C104.36,48.1 104.2,48.1 104.03,48.11 C104.03,48.11 100.52,47.8 95.63,47.8 Z" fill="#EDA600"/>
  <path d="M92.55,88.95 C81.64,88.95 68.64,87.12 68.64,78.38 C68.64,69.64 81.64,67.81 92.55,67.81 C101.8,67.81 110.23,69.16 110.31,69.17 C110.39,69.18 110.47,69.19 110.55,69.19 C114.96,69.19 118.03,73.85 118.03,78.03 C118.03,82.44 114.76,87.56 110.55,87.56 C110.47,87.56 110.39,87.57 110.31,87.58 C110.22,87.6 101.79,88.95 92.55,88.95 Z" fill="url(#c)"/>
  <path d="M92.55,69.32 C101.67,69.32 109.99,70.65 110.07,70.66 C110.23,70.69 110.39,70.7 110.55,70.7 C113.97,70.7 116.53,74.58 116.53,78.04 C116.53,81.65 113.77,86.07 110.55,86.07 C110.39,86.07 110.23,86.08 110.07,86.11 C109.99,86.12 101.66,87.45 92.55,87.45 C85.72,87.45 80.29,86.73 76.4,85.3 C70.79,83.24 70.14,80.36 70.14,78.38 C70.14,76.39 70.79,73.52 76.4,71.46 C80.28,70.04 85.72,69.32 92.55,69.32 M92.55,66.32 C80.62,66.32 67.14,68.51 67.14,78.39 C67.14,88.27 80.61,90.46 92.55,90.46 C102.04,90.46 110.55,89.08 110.55,89.08 C115.71,89.08 119.53,83.17 119.53,78.05 C119.53,72.93 115.71,67.71 110.55,67.71 C110.55,67.7 102.03,66.32 92.55,66.32 Z" fill="#EDA600"/>
  <path d="M100.86,122.19 C96.65,122.19 75.32,121.86 68.86,115.39 C67.73,114.26 67.19,113.04 67.19,111.66 C67.21,106.41 76.2,103.4 91.85,103.4 C97.43,103.4 101.75,103.8 101.8,103.8 C101.84,103.8 101.89,103.81 101.93,103.81 C104.27,103.82 106.48,104.77 108.13,106.5 C109.8,108.24 110.71,110.56 110.71,113.02 C110.69,118.07 106.74,122.17 101.9,122.17 C101.83,122.19 101.48,122.19 100.86,122.19 Z" fill="url(#b)"/>
  <path d="M91.86,104.91 C97.35,104.91 101.62,105.3 101.66,105.31 C101.75,105.32 101.84,105.32 101.93,105.32 C103.86,105.33 105.68,106.12 107.05,107.55 C108.45,109.01 109.22,110.96 109.21,113.03 C109.2,117.25 105.92,120.69 101.87,120.69 L101.86,120.69 L101.8,120.69 C101.78,120.69 101.44,120.7 100.85,120.7 C82.7,120.7 72.84,117.27 69.91,114.34 C68.8,113.23 68.68,112.29 68.68,111.68 C68.71,107.5 77.58,104.91 91.86,104.91 M91.86,101.91 C81.14,101.91 65.72,103.35 65.7,111.66 C65.66,123.12 95,123.69 100.86,123.69 C101.51,123.69 101.87,123.68 101.87,123.68 L101.9,123.68 C107.58,123.68 112.19,118.92 112.21,113.03 C112.23,107.13 107.63,102.33 101.94,102.31 C101.94,102.32 97.57,101.91 91.86,101.91 Z" fill="#EDA600"/>
  <path d="M97.12,106.32 C88.13,106.32 67.23,105.3 67.23,95.85 C67.23,87.91 82.3,86.73 91.29,86.73 C99.24,86.73 106.09,87.61 106.16,87.62 C106.22,87.63 106.29,87.63 106.35,87.63 C110.52,87.63 115.38,89.69 115.38,95.5 C115.38,101 111.08,106 106.35,106 L106.23,106 C106.19,106.01 102.34,106.32 97.12,106.32 Z" fill="url(#a)"/>
  <path d="M91.29,85.24 L91.29,88.24 C99.12,88.24 105.9,89.11 105.96,89.12 C106.09,89.14 106.22,89.14 106.35,89.14 C109.99,89.14 113.88,90.81 113.88,95.51 C113.88,100.14 110.22,104.51 106.35,104.51 C106.27,104.51 106.19,104.51 106.1,104.52 C106.06,104.52 102.27,104.83 97.11,104.83 C91.66,104.83 83.87,104.48 77.7,102.84 C71.75,101.25 68.73,98.9 68.73,95.87 C68.73,94.94 68.73,92.11 75.07,90.12 C79.02,88.88 84.47,88.25 91.28,88.25 L91.29,85.24 M91.29,85.24 C79.73,85.24 65.73,87.06 65.73,95.86 C65.73,106.23 85.13,107.83 97.12,107.83 C102.48,107.83 106.35,107.51 106.35,107.51 C111.99,107.51 116.88,101.68 116.88,95.51 C116.88,89.34 111.99,86.14 106.35,86.14 C106.35,86.14 99.42,85.24 91.29,85.24 Z" fill="#EDA600"/>
  <path d="M27.79,114.9 L23,96 L21,113 Z" fill="#EDA600"/>
</svg>
